X: 1
T: Wee Michael's March
C: John McCusker
R: march
Z: 2021 John Chambers <jc:trillian.mit.edu>
M: 3/4	% and 2/4
L: 1/8
K: D
"^A"[|]\
A, ED/E/ |\
"D"F2 FA GF | "G"E<G, D2 B,/A,/G, | "D"A,3 F GF  | "A"E3 EDE ||\
"D"F2 FA GF | "G"G<G, D2 B,/A,/G, | "D"A,3 F "A"E>D | "D"D3 ||
y3 A, "A"ED/E/ |\
"D"F2 FA GF | "G"E<G, D2 B,/A,/G, | "D"A,3 F GF  | "A"E4 FG  ||\
"D"A2 FA GF | "G"G<G, D2 B,/A,/G, | "A"A,3 F E>D | "D"D4 |]
"^B"[|\
DE/F/ | "G"G2 GF G<A |[M:2/4] "D"F2 ED |[M:3/4] "Bm"D<B,- B,A, GF | "A"E4 DE/F/ ||\
"G"G2 GF G<A |[M:2/4] "D"F2 ED |[M:3/4]  "D"D<A,- A,F E>D | "D"D4 ||
y2 \
DE/F/ | "G"G2 GF G<A |[M:2/4] "D"F2 ED |[M:3/4] "Bm"D<B,- B,A, GF | "A"E3 EFG   ||\
"D"A2 F>A GF | "G"G<G, D2 B,/A,/G, | "A"A,3 F E>D | "D"D3 |]
